src/assets/images/border-bottom.svg

<svg width="450" height="141" viewBox="0 0 450 141" fill="none" xmlns="http://www.w3.org/2000/svg">
<path d="M216.289 96.4571C263.957 90.283 384.245 87.6369 442 105.581L442 -0.000121421L37.974 -8.61003e-05C14.1468 49.3582 -26.696 137.725 24.895 136.995C89.3838 136.083 145.844 105.581 216.289 96.4571Z" fill="#F5F5F5"/>
<path d="M33.3545 138.863C27.0579 139.239 22.213 138.194 18.5501 136.068C14.8978 133.948 12.3304 130.702 10.6721 126.506C7.32944 118.047 7.72192 105.827 10.442 91.7388C11.8384 84.5069 13.837 76.8342 16.219 68.9999L14.1298 68.9999C11.8063 76.695 9.85379 84.2358 8.4783 91.3596C5.74499 105.516 5.24768 118.22 8.81201 127.241C10.6071 131.784 13.4424 135.416 17.5461 137.798C21.6393 140.173 26.9036 141.252 33.4738 140.86C65.7852 138.93 95.7243 129.723 126.252 119.505C129.708 118.348 133.172 117.178 136.647 116.004C163.899 106.8 191.89 97.3464 222.809 91.9248C246.4 87.7883 288.165 83.6917 331.341 82.5254C374.541 81.3585 419.025 83.1295 448.112 90.674L449.424 91.0143L448.419 68.9999L446.417 68.9999L447.302 88.4043C417.915 81.0666 373.87 79.3758 331.287 80.5261C288.044 81.6942 246.177 85.7969 222.464 89.9548C191.384 95.4045 163.245 104.909 136.005 114.11L135.999 114.112C132.526 115.285 129.066 116.454 125.618 117.608C95.0949 127.825 65.377 136.95 33.3545 138.863Z" fill="#DDDDDD"/>
</svg>

<svg width="450" height="141" fill="none" xmlns="http://www.w3.org/2000/svg"><path d="M216.289 96.457c47.668-6.174 167.956-8.82 225.711 9.124V0H37.974c-23.827 49.358-64.67 137.725-13.079 136.995 64.489-.912 120.949-31.414 191.394-40.538z" fill="#F5F5F5"/><path d="M33.355 138.863c-6.297.376-11.142-.669-14.805-2.795-3.652-2.12-6.22-5.366-7.878-9.562-3.343-8.459-2.95-20.679-.23-34.767 1.396-7.232 3.395-14.905 5.777-22.74h-2.09c-2.323 7.696-4.275 15.237-5.65 22.36-2.734 14.157-3.231 26.861.333 35.882 1.795 4.543 4.63 8.175 8.734 10.557 4.093 2.375 9.358 3.454 15.928 3.062 32.311-1.93 62.25-11.137 92.778-21.355 3.456-1.157 6.92-2.327 10.395-3.501 27.252-9.204 55.243-18.658 86.162-24.08 23.591-4.136 65.356-8.232 108.532-9.399 43.2-1.166 87.684.604 116.771 8.149l1.312.34L448.419 69h-2.002l.885 19.404c-29.387-7.337-73.432-9.028-116.015-7.878-43.243 1.168-85.11 5.27-108.823 9.429-31.08 5.45-59.219 14.954-86.459 24.155l-.006.002c-3.473 1.173-6.933 2.342-10.381 3.496-30.523 10.217-60.241 19.342-92.263 21.255z" fill="#DDD"/></svg>
